lib/preview/nrk-logo-preview-nrk-1-on-light.svg

<svg width="44" height="14" viewBox="0 0 44 14" fill="none" xmlns="http://www.w3.org/2000/svg">
<path d="M0 12.9971V0.998233H3.93719V12.9971H0ZM9.29381 2.90792L11.5581 12.9971H7.24917L4.54549 0.998233H6.96218C7.51635 0.991041 8.05406 1.18639 8.4745 1.54753C8.89562 1.89352 9.18495 2.37384 9.29381 2.90792ZM12.1495 12.9971V0.998233H16.0867V12.9971H12.1495ZM19.0605 5.56124C18.6362 5.56538 18.2188 5.45437 17.8525 5.24011C17.4912 5.03126 17.1911 4.7311 16.9823 4.36974C16.7678 4.00347 16.6568 3.5859 16.661 3.16146C16.6561 2.7396 16.7672 2.32452 16.9823 1.96157C17.1933 1.60413 17.4931 1.30724 17.8525 1.09966C18.2189 0.885645 18.6362 0.774657 19.0605 0.778527C19.4822 0.773985 19.8971 0.885072 20.2602 1.09966C20.616 1.30906 20.9127 1.6057 21.122 1.96157C21.3368 2.32462 21.4479 2.73964 21.4433 3.16146C21.4473 3.58587 21.3363 4.00337 21.122 4.36974C20.9149 4.72952 20.6179 5.02942 20.2602 5.24011C19.8971 5.45512 19.4819 5.56623 19.0599 5.56124H19.0605ZM22.0516 12.9971V0.998233H25.9892V12.9971H22.0516ZM30.9737 7.55538C30.9848 7.56702 31.0693 7.70503 31.2272 7.96941C31.3851 8.2338 31.5906 8.57183 31.8439 8.98343C32.0974 9.39485 32.3649 9.8314 32.6463 10.2931C32.9278 10.7549 33.1926 11.1915 33.4408 11.6029C33.6881 12.0143 33.9697 12.4791 34.2857 12.9971H29.9598C29.6893 12.5577 29.4441 12.1606 29.2245 11.8057C29.0048 11.4508 28.7713 11.0677 28.5238 10.6565C28.2758 10.2456 28.0306 9.84568 27.7882 9.45661C27.5458 9.06754 27.3375 8.72676 27.1633 8.4342C26.9883 8.14146 26.8671 7.94427 26.7997 7.84268C26.6325 7.59059 26.5336 7.29944 26.5127 6.99769C26.5294 6.70808 26.6226 6.42812 26.7828 6.18625C26.8504 6.07359 26.9743 5.87357 27.1545 5.58627C27.3348 5.29898 27.546 4.9582 27.7882 4.56387C28.0304 4.16954 28.2756 3.76675 28.5238 3.35552C28.772 2.94429 29.0056 2.55838 29.2245 2.19785C29.4445 1.83769 29.6897 1.43773 29.9598 0.997958H34.2857L30.9396 6.45664C30.8361 6.61871 30.7777 6.80549 30.7706 6.99769C30.7818 7.19947 30.8522 7.39346 30.9731 7.55538H30.9737Z" fill="#0A2343"/>
<path d="M42.5584 0.997143C42.2879 1.13235 42.0316 1.26475 41.7894 1.39432C41.5471 1.52389 41.3105 1.645 41.0795 1.75767C40.8486 1.87034 40.6148 1.98302 40.3782 2.09569C40.1416 2.20836 39.8993 2.30977 39.6514 2.3999C39.4036 2.49023 39.1388 2.58035 38.8571 2.6703L39.2289 4.10686C39.5669 4.00546 39.8741 3.90405 40.1503 3.80265C40.4206 3.70378 40.6857 3.59095 40.9443 3.46463C41.1978 3.34069 41.4514 3.20549 41.7049 3.05902L41.7133 3.05395V12.9971H43.4713V0.99771L42.5584 0.997143Z" fill="#1767CE"/>
</svg>

<svg xmlns="http://www.w3.org/2000/svg" viewBox="0 0 44 14"><path fill="#0A2343" d="M0 12.997V.998h3.937v12H0Zm9.294-10.09 2.264 10.09H7.25L4.545.998h2.417a2.276 2.276 0 0 1 1.513.55c.42.346.71.826.819 1.36Zm2.855 10.09V.998h3.938v12h-3.938Zm6.912-7.436a2.382 2.382 0 0 1-2.4-2.4 2.301 2.301 0 0 1 .321-1.2A2.41 2.41 0 0 1 20.26 1.1c.356.21.653.506.862.862.215.363.326.778.321 1.2a2.35 2.35 0 0 1-.321 1.208 2.4 2.4 0 0 1-.862.87 2.302 2.302 0 0 1-1.2.321Zm2.99 7.436V.998h3.938v12h-3.937Zm8.923-5.442c.01.012.095.15.253.414.158.265.364.603.617 1.014a317.184 317.184 0 0 1 1.597 2.62c.247.411.529.876.845 1.394H29.96c-.27-.44-.516-.836-.736-1.191-.22-.355-.453-.738-.7-1.15-.248-.41-.493-.81-.736-1.2-.242-.388-.45-.73-.625-1.022-.175-.293-.296-.49-.363-.591a1.747 1.747 0 0 1-.287-.845c.016-.29.11-.57.27-.812.067-.112.191-.312.371-.6a182.106 182.106 0 0 0 1.37-2.23l.7-1.158.736-1.2h4.326L30.94 6.457a1.08 1.08 0 0 0-.17.54c.012.202.082.396.203.558Z"/><path fill="#1767CE" d="M42.558.997c-.27.135-.526.268-.769.397-.242.13-.479.251-.71.364l-.7.338a8.23 8.23 0 0 1-.728.304c-.247.09-.512.18-.794.27l.372 1.437c.338-.102.645-.203.921-.304.27-.1.536-.212.794-.338.254-.124.507-.26.76-.406l.01-.005v9.943h1.757v-12h-.913Z"/></svg>
